packages/icons/svg/Fill/flash.svg

<svg width="24" height="24" viewBox="0 0 24 24" fill="none" xmlns="http://www.w3.org/2000/svg">
<g id="Icon/Fill/flash">
<path id="Mask" fill-rule="evenodd" clip-rule="evenodd" d="M11.1114 23.0001C10.9974 23.0001 10.8824 22.9801 10.7694 22.9391C10.3374 22.7821 10.0674 22.3501 10.1174 21.8931L10.8854 14.8001H5.00036C4.63136 14.8001 4.29236 14.5971 4.11836 14.2711C3.94436 13.9451 3.96436 13.5511 4.16936 13.2441L12.0574 1.44409C12.3134 1.06109 12.7974 0.90209 13.2304 1.06109C13.6634 1.21809 13.9324 1.65009 13.8824 2.10709L13.1144 9.20009H19.0004C19.3694 9.20009 19.7084 9.40309 19.8824 9.72909C20.0554 10.0551 20.0364 10.4491 19.8314 10.7561L11.9424 22.5561C11.7534 22.8401 11.4374 23.0001 11.1114 23.0001Z" fill="#000000"/>
</g>
</svg>

<svg fill="none" height="24" viewBox="0 0 24 24" width="24" xmlns="http://www.w3.org/2000/svg"><path clip-rule="evenodd" d="m11.1113 22.9999c-.114 0-.229-.02-.342-.061-.432-.157-.702-.589-.652-1.046l.768-7.093h-5.885c-.369 0-.708-.203-.882-.529s-.154-.72.051-1.027l7.888-11.79996c.256-.383.74-.542002 1.173-.383.433.157.702.589.652 1.046l-.768 7.093h5.886c.369 0 .708.203.882.529.173.32596.154.71996-.051 1.02696l-7.889 11.8c-.189.284-.505.444-.831.444" fill="#6b7280" fill-rule="evenodd"/></svg>
